X: 348
T: The flowers of Dungarvan
C: anon.
O: Ireland
B: Francis O'Neill: "The Dance Music of Ireland" (1907) no. 348
R: Double jig
Z: Transcribed by Frank Nordberg - http://www.musicaviva.com
F: http://www.musicaviva.com/abc/tunes/ireland/oneill-1001/oneill-1001-034
8.abc
M: 6/8
L: 1/8
K: D
G|AFD DdB|AdF (FE)D|Bcd ge(d|c)AA A2B|ABG FED|BdB ABc|dfa gf(e|f)dd d2:|
||e|fed afd|edc Bcd|AFA Da(f|g)fg e2a|fed ec(A|d)AG (FG)A|Bcd ea(g|f)dd d
2: |
W:
W:
W: From Musica Viva - http://www.musicaviva.com
W: the Internet center for free sheet music downloads.


